X: 14735
T: Gan Ainm
R: polka
M: 2/4
K: Gmajor
d|g z B z|d z G z|F/G/A/B/ cB|Ad AB|
cA/B/ cA/c/|Bd/g/ g/d/B/G/|AA A/G/A/B/|GB G||
A/G/|FA dF|G/B/d/B/ e/d/B/G/|FA dF|GB dd|
ce ac|d/f/a/f/ b/a/f/d/|ce ac|d/c/d/e/ f||
d|c/d/e/d/ Bd|c/d/e/d/ BG|A/A/B/B/ d/c/B/d/|c/d/e/d/ B/g/f/e/|
c/d/e/d/ Bd|c/d/e/d/ BG|AB A/G/A/B/|GB G2||

